X: 30695
T: Orange Rogue, The
R: jig
M: 6/8
K: Eminor
|:d|ege dBA|GEF G2 A|B2 B dd/e/f|g2 b agf|
e/f/ge dBA|GEF G2 A|B^AB dB/c/d|e3 e2:|
|:f|g2 e a2 f|g2 B B2 d|gfe agf|g3 B2 d|
gfe a2 f|gg/f/e f2 d|B^AB d>ef|g2 b agf|
e/f/ge d2 B|GEF G2 A|B^AB d2 f|gdb aa/g/f|
ege dc/B/A|GEF G3|BG/A/B d^cd|e3 e2:|

